public/img/svg/bolt.svg

<svg width="24" height="24" viewBox="0 0 24 24" fill="none" xmlns="http://www.w3.org/2000/svg">
<path d="M19.89 9.54998C19.8069 9.38507 19.6798 9.24638 19.5227 9.14931C19.3656 9.05223 19.1847 9.00054 19 8.99998H14V2.99998C14.0108 2.78067 13.949 2.56391 13.8243 2.38318C13.6996 2.20245 13.5189 2.06779 13.31 1.99998C13.1093 1.93393 12.8927 1.93318 12.6915 1.99786C12.4903 2.06254 12.3147 2.18931 12.19 2.35998L4.19004 13.36C4.08981 13.5048 4.02962 13.6736 4.01558 13.8492C4.00153 14.0248 4.03412 14.201 4.11004 14.36C4.17997 14.5417 4.30143 14.6991 4.45953 14.8128C4.61764 14.9265 4.80549 14.9915 5.00004 15H10V21C10.0002 21.2109 10.067 21.4163 10.1909 21.5869C10.3149 21.7575 10.4896 21.8846 10.69 21.95C10.7905 21.9811 10.8949 21.998 11 22C11.1578 22.0004 11.3135 21.9635 11.4543 21.8922C11.595 21.8209 11.717 21.7174 11.81 21.59L19.81 10.59C19.9178 10.4408 19.9823 10.2647 19.9964 10.0812C20.0105 9.89774 19.9737 9.71391 19.89 9.54998ZM12 17.92V14C12 13.7348 11.8947 13.4804 11.7072 13.2929C11.5196 13.1053 11.2653 13 11 13H7.00004L12 6.07998V9.99998C12 10.2652 12.1054 10.5196 12.2929 10.7071C12.4805 10.8946 12.7348 11 13 11H17L12 17.92Z" fill="#E14318"/>
</svg>

<svg xmlns="http://www.w3.org/2000/svg" width="24" height="24" fill="none"><path fill="#E14318" d="M19.89 9.55A1 1 0 0 0 19 9h-5V3a1 1 0 0 0-.69-1 1 1 0 0 0-1.12.36l-8 11a1 1 0 0 0-.08 1A1 1 0 0 0 5 15h5v6a1 1 0 0 0 1.81.59l8-11a1 1 0 0 0 .08-1.04ZM12 17.92V14a1 1 0 0 0-1-1H7l5-6.92V10a1 1 0 0 0 1 1h4l-5 6.92Z"/></svg>
